!!!!SEGMENT: pl-kk--kk-i-38--006_lasso-orlando-di--benedicam-dominum.krn
!!!cenid: 16xx:1256
!!!COM: Lasso, Orlando di
!!!COM-rism: pe506
!!!CDT: ~1532-1594/06/14
!!!CNT: French-Flemish
!!!OTL: Benedicam Dominum
!!!PDT:
!!!AGN: Sacred
!!!SMS-siglum: PL-Kk
!!!SMS-shelfmark: Kk.I.38
!!!NIFC-rismID: 1001154385
!!!URL-scan: http://repozytorium.nifc.pl/skany/pl-kk-nut--i-38
!!!ONB-nifc: Lib. 1. Fol. 19. 2da parte (jeśli występuje), należy do utworu tytułowego
!!!SMS-variant:
!!!SMS-altvar:
**kern	**text
*I"Baſso Ripieno.	*
*I'B rip	*
*clefF4	*
*k[]	*
*M2/1	*
*met(C|)	*
=1-	=1-
!LO:TX:a:t=Lib. 1. Fol. 19.	!
0r	.
=2-	=2-
!LO:TX:t=P:problem:kreska pseudotaktowa	!
1r	.
1.G	Be-
=3-	=3-
.	.
*2\right	*
2G\	-ne-
1E	-di-
=4-	=4-
!LO:TX:t=P:problem:kreska pseudotaktowa	!
1C	-cam
2.C/	Do-
4C/	-mi-
=5-	=5-
!LO:TX:t=P:problem:kreska pseudotaktowa	!
1G	-nu(m)
1D	in
=6-	=6-
2G\	om-
2F#X\	-ni
2.G\	Tem-
8F#\L	.
8E\J	.
=7-	=7-
2D/	.
2D/	-po-
!LO:TX:t=P:problem:kreska pseudotaktowa	!
0GG	-re
=8-	=8-
.	.
0r	.
=9-	=9-
.	.
1.C	Be-
=10-	=10-
.	.
2C/	-ne-
1E	-di-
=11-	=11-
!LO:TX:t=P:problem:kreska pseudotaktowa	!
1G	-cem
2.D\	Do-
4E\	.
=12-	=12-
2Fny\	.
2F\	-mi-
!LO:TX:t=P:problem:kreska pseudotaktowa	!
1C	-num
=13-	=13-
2r	.
2C/	in
2.F\	o-
4E\	.
=14-	=14-
1D	.
!LO:TX:t=P:problem:kreska pseudotaktowa	!
!LO:SIC:v:t=custos BBn	!
1AA	-mni
!LO:LB:g=original	!
=15-	=15-
2.BB/	Tem-
4C/	.
2D\	.
2D\	-po-
=16-	=16-
2GG,</	-re
1G	Be-
!LO:TX:t=P:problem:kreska pseudotaktowa	!
2G\	-ne-
=17-	=17-
1G	-di-
2D\	-cam
1G\	D(o-
=18-	=18-
.	.
!LO:TX:t=P:problem:kreska pseudotaktowa	!
2G\	-mi)-
2D,<\	-num
2G\	in
=19-	=19-
4C/	O-
4D/	.
4E/	.
!LO:TX:t=P:problem:kreska pseudotaktowa	!
4F/	.
2G\	.
2C/	-mni
=20-	=20-
2.F\	Tem-
4E\	.
2D\	.
2D\	-po-
=21-	=21-
!LO:TX:t=P:problem:kreska pseudotaktowa	!
0C	-re
=22-	=22-
0r	.
=23-	=23-
2r	.
2C/	sem-
2D,<\	-per
!LO:TX:t=P:problem:kreska pseudotaktowa	!
2E\	laus
=24-	=24-
2F\	e-
!LO:TX:t=P:problem:kreska pseudotaktowa	!
2D,</	-jus
1C	in
=25-	=25-
2c\	O-
2B\	-re
1A	me-
=26-	=26-
!LO:TX:t=P:problem:kreska pseudotaktowa	!
1G	-o,
!LO:TX:t=P:problem:kreska pseudotaktowa	!
1r	.
!LO:LB:g=original	!
=27-	=27-
1C	sem-
1D	-per
=28-	=28-
2E\	laus
1F	e-
2E,<\	-jus
=29-	=29-
!LO:TX:t=P:problem:kreska pseudotaktowa	!
1D	in
1.C	o-
=30-	=30-
.	.
2BB/	-re
1AA	me-
=31-	=31-
2GG,</	-o
2BB/	sem-
2C/	-per
!LO:TX:t=P:problem:kreska pseudotaktowa	!
2D/	laus
=32-	=32-
1E	e-
2D,<\	-jus
2G\	in
=33-	=33-
2F\	o-
!LO:TX:t=P:problem:kreska pseudotaktowa	!
2D\	-re
2.C/	me-
4BB/	.
=34-	=34-
2AA/	.
2GG/	.
!LO:TX:t=P:problem:kreska pseudotaktowa	!
1C	-o.
=35-	=35-
1r	.
2r	.
2E\	sem-
=36-	=36-
2F\	-per
!LO:TX:t=P:problem:kreska pseudotaktowa	!
2G\	laus
1A	e-
=37-	=37-
!LO:TX:t=P:problem:kreska pseudotaktowa	!
1G	-jus
1r	.
=38-	=38-
2r	.
2E\	sem-
2F\	-per
2G,<\	la(us)
=39-	=39-
!LO:TX:t=P:problem:kreska pseudotaktowa	!
!LO:SIC:v:t=custos G	!
1A	E-
!LO:LB:g=original	!
2G,<\	-jus
2C/	in
=40-	=40-
2G\	o-
2F#X\	-re
*lig	*
1G	me-
=41-	=41-
1D	.
*Xlig	*
!LO:TX:t=P:problem:kreska pseudotaktowa	!
1C	-o.
=42-	=42-
1r	.
1C	sem-
=43-	=43-
2D\	-per
2E\	laus
1Fny	e-
=44-	=44-
2D,</	-jus
2C#X/	in
2D\	o-
!LO:TX:t=P:problem:kreska pseudotaktowa	!
2D\	-re
=45-	=45-
1AA	me-
!LO:TX:t=P:problem:kreska pseudotaktowa	!
1E	-o
=46-	=46-
1r	.
2r	.
2AA/	sem-
=47-	=47-
2BB/	-per
2Cny/	laus
!LO:TX:t=P:problem:kreska pseudotaktowa	!
1D	e-
=48-	=48-
2GG,</	-jus
2BB/	in
2C/	o-
2C/	-re
=49-	=49-
0GG	me-
=50-	=50-
0Dl;	-o.
=51||	=51||
*M2/1	*
*met(C|)	*
!LO:TX:a:t=2da\nparte	!
00r	.
=52-	=52-
.	.
=53-	=53-
!LO:TX:t=P:problem:kreska pseudotaktowa	!
00r	.
=54-	=54-
.	.
=55-	=55-
!LO:TX:t=P:problem:kreska pseudotaktowa	!
!LO:SIC:v:t=custos E	!
1D	In
!LO:LB:g=original	!
1.E	Do-
=56-	=56-
.	.
2F\	-mi-
!LO:TX:t=P:problem:kreska pseudotaktowa	!
1G	-no
=57-	=57-
2r	.
2C/	lau-
2.F\	.
4F\	-da-
=58-	=58-
2E,<\	-bit
2E\	a-
2F\	-ni-
2F\	-ma
=59-	=59-
*lig	*
1D	me-
1C	.
*Xlig	*
=60-	=60-
!LO:TX:t=P:problem:kreska pseudotaktowa	!
1D	-a,
0r	.
=61-	=61-
.	.
1D	in
=62-	=62-
1.E	Do-
2F\	-mi-
=63-	=63-
!LO:TX:t=P:problem:kreska pseudotaktowa	!
1G	-no
2r	.
!LO:TX:t=P:problem:kreska pseudotaktowa	!
2C/	lau-
=64-	=64-
2.G\	.
4G\	-da-
2F,<\	-bit
!LO:TX:t=P:problem:kreska pseudotaktowa	!
2C/	a-
=65-	=65-
2D\	-ni-
2D\	-ma
1GG	me-
=66-	=66-
!LO:TX:t=P:problem:kreska pseudotaktowa	!
1AA	-a
1r	.
=67-	=67-
1E	lau-
2.F\	.
4F\	-da-
=68-	=68-
2D,<\	-bit
!LO:TX:t=P:problem:kreska pseudotaktowa	!
2D\	a-
!LO:LB:g=original	!
2G\	-ni-
2G\	-ma
=69-	=69-
1E	me-
!LO:TX:t=P:problem:kreska pseudotaktowa	!
0D	-a
=70-	=70-
.	.
2r	.
2GG/	lau-
=71-	=71-
2.D\	.
4D\	-da-
2C,</	-bit
2GG/	a-
=72-	=72-
2AA/	-ni-
2AA/	-ma
1D	me-
=73-	=73-
!LO:TX:t=P:problem:kreska pseudotaktowa	!
1C	-a
2r	.
2C/	a-
=74-	=74-
2GG/	-ni-
2GG/	-ma
*lig	*
1C	me-
=75-	=75-
1D	.
*Xlig	*
!LO:TX:t=P:problem:kreska pseudotaktowa	!
1GG,<	-a;
=76-	=76-
0r	.
=77-	=77-
1.D	au-
2D/	-di-
=78-	=78-
!LO:TX:t=P:problem:kreska pseudotaktowa	!
1C,<	-ant
0GG	man-
=79-	=79-
.	.
1C	-ſve-
=80-	=80-
!LO:TX:t=P:problem:kreska pseudotaktowa	!
1GG	-ti,
1r	.
=81-	=81-
*	*ij
1.A	au-
2AA/	-di-
=82-	=82-
1D,<	-ant
0BB-X	man-
=83-	=83-
.	.
1F	-ſve-
=84-	=84-
!LO:TX:t=P:problem:kreska pseudotaktowa	!
1C	-ti
*	*Xij
!LO:LB:g=original	!
0r	.
=85-	=85-
.	.
1r	.
=86-	=86-
2r	.
!LO:TX:t=P:problem:kreska pseudotaktowa	!
2D\	et
4E\	lae-
4F\	.
4G\	.
4E\	.
=87-	=87-
4F\	-ten-
4G\	.
!LO:TX:t=P:problem:kreska pseudotaktowa	!
2C/	.
2G\	.
!LO:TX:t=P:problem:kreska pseudotaktowa	!
2D\	-tur
=88-	=88-
1r	.
2r	.
2D\	et
=89-	=89-
2.E\	lae-
4D/	.
4C/	.
4BBny/	.
2AA/	.
=90-	=90-
2GG/	-ten-
!LO:TX:t=P:problem:kreska pseudotaktowa	!
2D\	-tur
1r	.
=91-	=91-
2r	.
!LO:TX:t=P:problem:kreska pseudotaktowa	!
2D\	et
4E\	lae-
4F\	.
4G\	.
4E\	.
=92-	=92-
4F\	ten-
4G\	.
4A\	.
4F\	.
4G\	.
4F\	.
4F\	.
8E\L	.
8D\J	.
=93-	=93-
[2E\	.
2E\]	.
!LO:TX:t=P:problem:kreska pseudotaktowa	!
1D	-tur
=94-	=94-
0r	.
=95-	=95-
2r	.
!LO:TX:t=P:problem:kreska pseudotaktowa	!
2G\	et
4F\	lae-
8E\L	.
8D\J	.
2C/	.
=96-	=96-
4G\	.
4A\	.
!LO:TX:t=P:problem:kreska pseudotaktowa	!
2F\	-ten-
!LO:TX:t=P:problem:kreska pseudotaktowa	!
1E	-tur
!LO:LB:g=original	!
=97-	=97-
2r	.
2D\	et
4E\	lae-
4F\	.
4G\	.
!LO:TX:t=P:problem:kreska pseudotaktowa	!
4E\	.
=98-	=98-
2F\	-ten-
2D\	.
2.C/	.
4BB/	.
=99-	=99-
*lig	*
1AA	-tur
!LO:TX:t=P:problem:kreska pseudotaktowa	!
1GG	.
*Xlig	*
=100-	=100-
0r	.
=101-	=101-
2r	.
!LO:TX:t=P:problem:kreska pseudotaktowa	!
2D\	et
4E\	lae-
4F\	.
4G\	.
4E\	.
=102-	=102-
2F\	-ten-
!LO:TX:t=P:problem:kreska pseudotaktowa	!
2A\	.
2G,<\	-tur
*	*ij
2D\	et
=103-	=103-
2C/	lae-
!LO:TX:t=P:problem:kreska pseudotaktowa	!
2E\	-ten-
1D	-tur
*	*Xij
=104-	=104-
2r	.
!LO:TX:t=P:problem:kreska pseudotaktowa	!
2GG/	et
4C/	lae-
4D/	.
4E/	.
4C/	.
=105-	=105-
4G\	-ten-
4F\	.
4E\	.
!LO:TX:t=P:problem:kreska pseudotaktowa	!
4D\	.
4C/	.
4D/	.
2.E\	.
=106-	=106-
.	.
4F\	.
!LO:TX:t=P:problem:kreska pseudotaktowa	!
2G\	.
1C	.
=107-	=107-
0GGl;	-tur.
==	==
*-	*-
!!!RDF**kern: < = below
!!!RDF**kern: l = terminal long
!!!ENC: Andrzej Kubiczek
!!!END: 2021-07-29
!!!ENC: Krzysztof Stępień
!!!END: 2021-07-01
